images/aside-menu-icon-1.svg

<svg width="24" height="24" viewBox="0 0 24 24" fill="none" xmlns="http://www.w3.org/2000/svg">
<path d="M1 10.5256L10.4993 3.49031C11.382 2.83656 12.618 2.83656 13.5007 3.49031L23 10.5256M4.66667 8.19795V18.6724C4.66667 19.9579 5.76108 21 7.11111 21H16.8889C18.2389 21 19.3333 19.9579 19.3333 18.6724V8.19795M10.7778 16.3447H13.2222C13.8972 16.3447 14.4444 15.8236 14.4444 15.1809V12.8532C14.4444 12.2105 13.8972 11.6894 13.2222 11.6894H10.7778C10.1028 11.6894 9.55556 12.2105 9.55556 12.8532V15.1809C9.55556 15.8236 10.1028 16.3447 10.7778 16.3447Z" stroke="white" stroke-width="1.5" stroke-linecap="round"/>
</svg>

<svg width="24" height="24" fill="none" xmlns="http://www.w3.org/2000/svg"><path d="M1 10.526l9.5-7.036a2.542 2.542 0 013 0l9.5 7.036M4.667 8.198v10.474C4.667 19.958 5.76 21 7.11 21h9.778c1.35 0 2.444-1.042 2.444-2.328V8.198m-8.555 8.147h2.444c.675 0 1.222-.521 1.222-1.164v-2.328c0-.643-.547-1.164-1.222-1.164h-2.444c-.675 0-1.222.521-1.222 1.164v2.328c0 .643.547 1.164 1.222 1.164z" stroke="#fff" stroke-width="1.5" stroke-linecap="round"/></svg>
